64x64/apps/openclonk.svg

<svg xmlns="http://www.w3.org/2000/svg" width="64" height="64" version="1">
 <path style="opacity:0.2" d="M 57.447489,12.543212 33.273514,4.0466639 c -0.17756,-0.0625 -0.3713,-0.0625 -0.548864,0 L 8.5506747,12.543212 c -0.3298777,0.115956 -0.5506762,0.426817 -0.5506762,0.775508 0,8.598524 2.2829055,18.538193 6.2635495,27.270271 3.228809,7.083856 9.035085,16.533219 18.358626,21.319497 0.118652,0.06086 0.24819,0.09128 0.377898,0.09128 0.1297,0 0.25925,-0.03042 0.377898,-0.09128 9.323046,-4.787264 15.129158,-14.236463 18.358625,-21.319497 3.980481,-8.732736 6.263386,-18.673063 6.263386,-27.270271 0,-0.348691 -0.220798,-0.659552 -0.550676,-0.775508 z"/>
 <path style="fill:#e8604d" d="M 57.447489,11.543444 33.273514,3.0468962 c -0.17756,-0.062501 -0.3713,-0.062501 -0.548864,0 L 8.5506747,11.543444 C 8.220797,11.6594 7.9999985,11.970261 7.9999985,12.318953 c 0,8.598523 2.2829055,18.538192 6.2635495,27.270271 3.228809,7.083856 9.035085,16.533218 18.358626,21.319497 0.118652,0.06086 0.24819,0.09128 0.377898,0.09128 0.1297,0 0.25925,-0.03042 0.377898,-0.09128 9.323046,-4.787265 15.129158,-14.236463 18.358625,-21.319497 3.980481,-8.732737 6.263386,-18.673063 6.263386,-27.270271 0,-0.348692 -0.220798,-0.659552 -0.550676,-0.775509 z"/>
 <path style="opacity:0.1;fill:#f4f4f7" d="M 33 3 C 32.907671 3 32.815345 3.0156245 32.726562 3.046875 L 8.5507812 11.542969 C 8.2209035 11.658925 8 11.971621 8 12.320312 C 8 12.591583 8.0169379 12.871633 8.0273438 13.148438 C 8.087168 12.87332 8.2771963 12.639137 8.5507812 12.542969 L 32.726562 4.046875 C 32.904127 3.984374 33.095878 3.984374 33.273438 4.046875 L 57.449219 12.542969 C 57.722804 12.639137 57.912832 12.87332 57.972656 13.148438 C 57.983061 12.871615 58 12.591542 58 12.320312 C 58 11.971621 57.779097 11.658925 57.449219 11.542969 L 33.273438 3.046875 C 33.184658 3.0156245 33.092329 3 33 3 z"/>
 <path style="opacity:0.1" d="m 47.578109,15.029533 a 2.0001993,2.0001993 0 0 0 -1.55078,0.664062 L 6.5273428,58.642799 a 2.0015012,2.0015012 0 1 0 2.9453114,2.710935 L 48.97264,18.400625 a 2.0001993,2.0001993 0 0 0 -1.394531,-3.371092 z"/>
 <path style="fill:none;stroke:#795b42;stroke-width:3.99999857;stroke-linecap:round" d="M 7.9999985,59.000001 47.500901,16.050291"/>
 <path style="fill:none;stroke:#b1b1b2;stroke-width:0.96546364" d="m 33.232702,32.555723 c -1.163582,2.448759 -1.18613,4.538728 1.477557,6.568739 2.663689,2.030008 4.624767,1.453466 6.630194,0.68866"/>
 <path style="opacity:0.2" d="M 7.4056959,6.1393548 A 2.0298097,3.1462049 33.145248 0 0 4.7186127,7.8869007 2.0298097,3.1462049 33.145248 0 0 4.6978793,11.630901 2.0298097,3.1462049 33.145248 0 0 5.9523206,11.796369 L 41.071061,38.53 44.200804,34.419236 8.800156,7.4711103 A 2.0298097,3.1462049 33.145248 0 0 8.1382849,6.3623357 2.0298097,3.1462049 33.145248 0 0 7.4057031,6.1393548 Z"/>
 <path style="fill:#b1b1b2" d="M 7.4056959,5.1393635 A 2.0298097,3.1462049 33.145248 0 0 4.7186127,6.8869094 2.0298097,3.1462049 33.145248 0 0 4.6978793,10.63091 2.0298097,3.1462049 33.145248 0 0 5.9523206,10.796377 L 41.071061,37.530009 44.200804,33.419244 8.800156,6.471119 A 2.0298097,3.1462049 33.145248 0 0 8.1382849,5.3623444 2.0298097,3.1462049 33.145248 0 0 7.4057031,5.1393635 Z"/>
 <path style="opacity:0.2;fill:#f4f4f7" d="M 7.40625 5.1386719 A 2.0298097 3.1462049 33.145248 0 0 4.71875 6.8867188 A 2.0298097 3.1462049 33.145248 0 0 4.0449219 9.5664062 A 2.0298097 3.1462049 33.145248 0 1 4.71875 7.8867188 A 2.0298097 3.1462049 33.145248 0 1 7.40625 6.1386719 A 2.0298097 3.1462049 33.145248 0 1 8.1386719 6.3632812 A 2.0298097 3.1462049 33.145248 0 1 8.8007812 7.4707031 L 43.71875 34.052734 L 44.201172 33.419922 L 8.8007812 6.4707031 A 2.0298097 3.1462049 33.145248 0 0 8.1386719 5.3632812 A 2.0298097 3.1462049 33.145248 0 0 7.40625 5.1386719 z"/>
 <path style="fill:#989898" d="m 15.854542,11.334737 1.977049,1.468462 c 0.116176,0.08628 0.185812,0.319179 0.04894,0.366159 -1.484613,0.509577 -3.392705,1.170783 -2.969928,3.859192 0.02249,0.142958 -0.249985,0.13523 -0.36616,0.04892 l -1.97704,-1.468455 c -0.116173,-0.08628 -0.07779,-0.224353 -0.04893,-0.36616 0.395884,-1.945707 1.540609,-2.946911 2.969925,-3.859191 0.121977,-0.07786 0.249986,-0.135227 0.366161,-0.04894 z"/>
 <path style="fill:#989898" d="m 27.390982,20.159621 1.977049,1.468461 c 0.11618,0.08628 0.18582,0.319178 0.04894,0.366158 -1.484613,0.509578 -3.392705,1.170784 -2.969929,3.859193 0.02248,0.14296 -0.249986,0.13522 -0.36616,0.04892 l -1.977041,-1.468456 c -0.11618,-0.08628 -0.0778,-0.224351 -0.04892,-0.366159 0.395884,-1.945708 1.540609,-2.946911 2.969925,-3.85919 0.12198,-0.07785 0.249986,-0.13523 0.366162,-0.04894 z"/>
 <path style="fill:#989898" d="m 38.963672,28.920702 1.977049,1.468461 c 0.11618,0.08628 0.18582,0.31918 0.04894,0.366158 -1.484612,0.509578 -3.392705,1.370668 -2.969927,4.059077 0.02248,0.14296 -0.24998,0.13522 -0.36616,0.04892 l -1.977041,-1.468456 c -0.11618,-0.08628 -0.0778,-0.224352 -0.04892,-0.36616 0.395884,-1.945707 1.540609,-3.146794 2.969925,-4.059072 0.12198,-0.07786 0.249986,-0.13524 0.36616,-0.04894 z"/>
 <path style="fill:#b1b1b2" d="m 40.850109,36.949979 v 1.45003 h -5.80012 z"/>
 <path style="opacity:0.1" d="m 59.792392,57.021496 c 0.309648,1.388149 0.210594,1.353827 -0.924629,2.215205 -1.39548,1.15455 -2.847421,2.304107 -4.506421,2.617659 -0.534364,0.10152 -1.110537,0.18414 -1.716857,0.12632 -0.990942,-0.07064 -1.239416,-0.396904 -1.73002,-1.218086 L 43.036912,47.577059 42.266751,44.167238 38.783848,40.610501 31.659076,34.858419 21.444852,26.612172 c -0.400764,-0.830011 -1.077468,-1.770395 -1.912092,-2.773949 -0.471073,-0.566419 -1.995199,-1.645747 -2.641473,-2.138861 -3.118721,-2.37962 -4.841886,-3.999592 -5.388981,-4.922091 -0.291188,-1.177999 0.493847,-1.043973 1.201851,-0.481097 l 20.859909,16.583972 c 1.504383,1.0934 2.886759,2.156299 5.049928,3.414397 1.342741,0.246794 2.787321,-0.286754 3.755384,-1.203252 0.52592,-0.602191 0.637598,-0.997263 0.837926,-1.436661 2.355095,1.249123 3.071609,1.587765 2.627187,5.14888 l 0.528104,2.221413 1.979623,6.36895 9.903793,7.22285 c 1.062434,0.544781 1.357091,1.410973 1.546381,2.404773 z"/>
 <path style="fill:#664117" d="m 59.792392,56.021728 c 0.309648,1.38815 0.210594,1.353828 -0.924629,2.215206 -1.39548,1.154549 -2.847421,2.304107 -4.506421,2.617659 -0.534364,0.10152 -1.110537,0.18414 -1.716857,0.12632 -0.990942,-0.07064 -1.239416,-0.396904 -1.73002,-1.218086 L 43.036912,46.577292 42.266751,43.167471 38.783848,39.610734 31.659076,33.858652 21.444852,25.612405 c -0.400764,-0.830012 -1.077468,-1.770395 -1.912092,-2.773949 -0.471073,-0.56642 -1.995199,-1.645747 -2.641473,-2.138862 -3.118721,-2.37962 -4.841886,-3.999592 -5.388981,-4.922091 -0.291188,-1.177999 0.493847,-1.043972 1.201851,-0.481097 l 20.859909,16.583973 c 1.504383,1.0934 2.886759,2.156299 5.049928,3.414397 1.342741,0.246794 2.787321,-0.286754 3.755384,-1.203252 0.52592,-0.602192 0.637598,-0.997264 0.837926,-1.436661 2.355095,1.249123 3.071609,1.587765 2.627187,5.14888 l 0.528104,2.221413 1.979623,6.36895 9.903793,7.222849 c 1.062434,0.544782 1.357091,1.410974 1.546381,2.404773 z"/>
 <path style="opacity:0.2" d="m 52.625267,4.0001189 c 1.804989,0.00988 3.878689,0.2443003 4.93991,1.1443502 1.181048,1.0016754 1.79008,3.3106676 2.101737,5.2618359 0.60187,2.054081 0.17226,3.53887 -0.600597,5.218285 -2.429028,5.096598 -5.595424,9.823467 -8.910583,14.475739 C 43.010896,26.065003 37.45881,20.808226 33.849989,14.061202 37.696732,10.857455 41.996893,7.8810613 47.068927,5.2917004 48.880534,4.1303225 50.817912,3.9981989 52.625267,4.0001189 Z"/>
 <path style="fill:#b1b1b2" d="m 52.625267,3.0003512 c 1.804989,0.00988 3.878689,0.2443003 4.93991,1.1443502 1.181048,1.0016754 1.79008,3.3106676 2.101737,5.2618362 0.60187,2.0540814 0.17226,3.5388704 -0.600597,5.2182854 -2.429028,5.096599 -5.595424,9.823466 -8.910583,14.475739 C 43.010896,25.065235 37.45881,19.80846 33.849989,13.061435 37.696732,9.8576882 41.996893,6.8812936 47.068927,4.2919327 48.880534,3.1305548 50.817912,2.9984313 52.625267,3.0003512 Z"/>
 <path style="fill:#989898" d="m 48.707016,14.894548 c -0.65162,0.04624 -3.479687,1.644844 -8.765623,6.433591 0.919974,0.946501 1.876616,1.865069 2.902343,2.730469 6.79392,-8.077179 6.19531,-9.144529 6.19531,-9.144529 -0.0224,0.02174 -0.10184,-0.03585 -0.33203,-0.01954 z"/>
 <path style="opacity:0.2;fill:#f4f4f7" d="M 52.625 3 C 50.817645 2.9980801 48.879966 3.1296377 47.068359 4.2910156 C 41.996325 6.8803765 37.696352 9.8568001 33.849609 13.060547 C 33.974932 13.29485 34.108286 13.523186 34.238281 13.753906 C 37.98852 10.669139 42.161719 7.79594 47.068359 5.2910156 C 48.879966 4.1296377 50.817645 3.9980801 52.625 4 C 54.429989 4.00988 56.503232 4.2444814 57.564453 5.1445312 C 58.745501 6.1462066 59.354359 8.455081 59.666016 10.40625 C 59.805547 10.882447 59.884642 11.325478 59.921875 11.75 C 59.982392 11.03078 59.919103 10.269996 59.666016 9.40625 C 59.354359 7.4550814 58.745501 5.1462066 57.564453 4.1445312 C 56.503232 3.2444813 54.429989 3.00988 52.625 3 z"/>
</svg>

<svg xmlns="http://www.w3.org/2000/svg" width="64" height="64" version="1"><path style="opacity:.2" d="M57.447 12.543 33.274 4.047a.827.827 0 0 0-.55 0L8.552 12.543A.823.823 0 0 0 8 13.32c0 8.598 2.283 18.538 6.264 27.27 3.228 7.084 9.035 16.533 18.358 21.32a.827.827 0 0 0 .756 0c9.323-4.788 15.13-14.237 18.359-21.32C55.717 31.856 58 21.916 58 13.319c0-.349-.22-.66-.55-.776z"/><path style="fill:#e8604d" d="M57.447 11.543 33.274 3.047a.827.827 0 0 0-.55 0L8.552 11.543A.823.823 0 0 0 8 12.32c0 8.598 2.283 18.538 6.264 27.27 3.228 7.084 9.035 16.533 18.358 21.32a.827.827 0 0 0 .756 0c9.323-4.788 15.13-14.237 18.359-21.32C55.717 30.856 58 20.916 58 12.32c0-.349-.22-.66-.55-.776z"/><path style="opacity:.1;fill:#f4f4f7" d="M33 3a.823.823 0 0 0-.273.047L8.55 11.543A.825.825 0 0 0 8 12.32c0 .272.017.552.027.828.06-.275.25-.509.524-.605l24.176-8.496a.821.821 0 0 1 .546 0l24.176 8.496c.274.096.464.33.524.605.01-.276.027-.556.027-.828a.825.825 0 0 0-.55-.777L33.272 3.047A.823.823 0 0 0 33 3z"/><path style="opacity:.1" d="M47.578 15.03a2 2 0 0 0-1.55.664l-39.5 42.949a2.002 2.002 0 1 0 2.945 2.71l39.5-42.952a2 2 0 0 0-1.395-3.371z"/><path style="fill:none;stroke:#795b42;stroke-width:3.99999857;stroke-linecap:round" d="m8 59 39.5-42.95"/><path style="fill:none;stroke:#b1b1b2;stroke-width:.96546364" d="M33.233 32.556c-1.164 2.448-1.186 4.538 1.477 6.568 2.664 2.03 4.625 1.454 6.63.69"/><path style="opacity:.2" d="M7.406 6.14a2.03 3.146 33.145 0 0-2.687 1.747 2.03 3.146 33.145 0 0-.021 3.744 2.03 3.146 33.145 0 0 1.254.165l35.12 26.734 3.129-4.11L8.8 7.47a2.03 3.146 33.145 0 0-.663-1.109 2.03 3.146 33.145 0 0-.732-.223z"/><path style="fill:#b1b1b2" d="M7.406 5.14a2.03 3.146 33.145 0 0-2.687 1.747 2.03 3.146 33.145 0 0-.021 3.744 2.03 3.146 33.145 0 0 1.254.165l35.12 26.734 3.129-4.11L8.8 6.47a2.03 3.146 33.145 0 0-.663-1.109 2.03 3.146 33.145 0 0-.732-.223z"/><path style="opacity:.2;fill:#f4f4f7" d="M7.406 5.139A2.03 3.146 33.145 0 0 4.72 6.887a2.03 3.146 33.145 0 0-.674 2.68 2.03 3.146 33.145 0 1 .674-1.68 2.03 3.146 33.145 0 1 2.687-1.748 2.03 3.146 33.145 0 1 .733.224A2.03 3.146 33.145 0 1 8.8 7.471l34.918 26.582.482-.633-35.4-26.95a2.03 3.146 33.145 0 0-.662-1.107 2.03 3.146 33.145 0 0-.733-.224z"/><path style="fill:#989898" d="m15.855 11.335 1.977 1.468c.116.086.185.32.049.366-1.485.51-3.393 1.171-2.97 3.86.022.143-.25.135-.367.048l-1.977-1.468c-.116-.086-.077-.224-.049-.366.396-1.946 1.541-2.947 2.97-3.86.122-.077.25-.135.367-.048zM27.391 20.16l1.977 1.468c.116.086.186.32.049.366-1.485.51-3.393 1.171-2.97 3.86.023.142-.25.135-.366.048l-1.977-1.468c-.116-.086-.078-.224-.05-.366.397-1.946 1.542-2.947 2.97-3.86.123-.077.25-.135.367-.048zM38.964 28.92l1.977 1.47c.116.085.186.318.049.365-1.485.51-3.393 1.371-2.97 4.06.022.142-.25.135-.366.048l-1.977-1.468c-.117-.086-.078-.224-.05-.366.396-1.946 1.541-3.147 2.97-4.06.123-.077.25-.135.367-.048z"/><path style="fill:#b1b1b2" d="M40.85 36.95v1.45h-5.8z"/><path style="opacity:.1" d="M59.792 57.021c.31 1.389.211 1.354-.924 2.216-1.396 1.154-2.848 2.304-4.507 2.617-.534.102-1.11.185-1.717.127-.99-.071-1.239-.397-1.73-1.218l-7.877-13.186-.77-3.41-3.483-3.556-7.125-5.753-10.214-8.246c-.4-.83-1.078-1.77-1.912-2.774-.471-.566-1.995-1.646-2.642-2.139-3.118-2.38-4.842-4-5.389-4.922-.29-1.178.494-1.044 1.202-.48l20.86 16.583c1.504 1.094 2.887 2.156 5.05 3.415 1.343.246 2.787-.287 3.755-1.204.526-.602.638-.997.838-1.436 2.355 1.249 3.072 1.587 2.627 5.149l.529 2.22 1.98 6.37 9.903 7.223c1.062.545 1.357 1.41 1.546 2.404z"/><path style="fill:#664117" d="M59.792 56.022c.31 1.388.211 1.354-.924 2.215-1.396 1.154-2.848 2.304-4.507 2.618-.534.101-1.11.184-1.717.126-.99-.07-1.239-.397-1.73-1.218l-7.877-13.186-.77-3.41-3.483-3.556-7.125-5.752-10.214-8.247c-.4-.83-1.078-1.77-1.912-2.774-.471-.566-1.995-1.645-2.642-2.138-3.118-2.38-4.842-4-5.389-4.922-.29-1.178.494-1.044 1.202-.482l20.86 16.584c1.504 1.094 2.887 2.157 5.05 3.415 1.343.247 2.787-.287 3.755-1.203.526-.603.638-.998.838-1.437 2.355 1.249 3.072 1.588 2.627 5.149l.529 2.221 1.98 6.37 9.903 7.222c1.062.545 1.357 1.41 1.546 2.405z"/><path style="opacity:.2" d="M52.625 4c1.805.01 3.879.244 4.94 1.144 1.181 1.002 1.79 3.311 2.102 5.262.602 2.054.172 3.54-.6 5.219-2.43 5.096-5.596 9.823-8.911 14.475-7.145-4.035-12.697-9.292-16.306-16.039 3.847-3.204 8.147-6.18 13.219-8.77 1.812-1.16 3.749-1.293 5.556-1.29z"/><path style="fill:#b1b1b2" d="M52.625 3c1.805.01 3.879.245 4.94 1.145 1.181 1.001 1.79 3.31 2.102 5.262.602 2.054.172 3.538-.6 5.218-2.43 5.096-5.596 9.823-8.911 14.476-7.145-4.036-12.697-9.293-16.306-16.04 3.847-3.203 8.147-6.18 13.219-8.77 1.812-1.16 3.749-1.293 5.556-1.29z"/><path style="fill:#989898" d="M48.707 14.895c-.652.046-3.48 1.644-8.766 6.433.92.947 1.877 1.865 2.903 2.73 6.794-8.077 6.195-9.144 6.195-9.144-.022.022-.102-.036-.332-.02z"/><path style="opacity:.2;fill:#f4f4f7" d="M52.625 3c-1.807-.002-3.745.13-5.557 1.291-5.072 2.59-9.372 5.566-13.218 8.77.125.234.258.462.388.693 3.75-3.085 7.924-5.958 12.83-8.463C48.88 4.13 50.818 3.998 52.625 4c1.805.01 3.878.244 4.94 1.145 1.18 1.001 1.79 3.31 2.101 5.261.14.476.219.92.256 1.344.06-.72-.003-1.48-.256-2.344-.312-1.95-.92-4.26-2.102-5.261-1.06-.9-3.134-1.135-4.939-1.145z"/></svg>
